swing/src/main/resources/pix/icons/lucide/clipboard-paste.svg

<?xml version="1.0" encoding="UTF-8" standalone="no"?>
<!DOCTYPE svg PUBLIC "-//W3C//DTD SVG 1.1//EN" "http://www.w3.org/Graphics/SVG/1.1/DTD/svg11.dtd">
<svg width="100%" height="100%" viewBox="0 0 16 16" version="1.1" xmlns="http://www.w3.org/2000/svg" xmlns:xlink="http://www.w3.org/1999/xlink" xml:space="preserve" xmlns:serif="http://www.serif.com/" style="fill-rule:evenodd;clip-rule:evenodd;stroke-linecap:round;stroke-linejoin:round;">
    <g transform="matrix(0.666667,0,0,0.666667,0,0)">
        <path d="M11,14L21,14" style="fill:none;fill-rule:nonzero;stroke:rgb(200,0,0);stroke-width:1.5px;"/>
    </g>
    <g transform="matrix(0.666667,0,0,0.666667,0,0)">
        <path d="M16,4L18,4C19.097,4 20,4.903 20,6L20,7.344" style="fill:none;fill-rule:nonzero;stroke:black;stroke-width:1.25px;"/>
    </g>
    <g transform="matrix(0.666667,0,0,0.666667,0,0)">
        <path d="M17,18L21,14L17,10" style="fill:none;fill-rule:nonzero;stroke:rgb(200,0,0);stroke-width:1.5px;"/>
    </g>
    <g transform="matrix(0.666667,0,0,0.666667,0,0)">
        <path d="M8,4L6,4C4.903,4 4,4.903 4,6L4,20C4,21.097 4.903,22 6,22L18,22C18.759,22 19.456,21.568 19.793,20.887" style="fill:none;fill-rule:nonzero;stroke:black;stroke-width:1.25px;"/>
    </g>
    <g transform="matrix(0.666667,0,0,0.666667,0,0)">
        <path d="M16,3.5L16,4.5C16,5.328 15.328,6 14.5,6L9.5,6C8.672,6 8,5.328 8,4.5L8,3.5C8,2.672 8.672,2 9.5,2L14.5,2C15.328,2 16,2.672 16,3.5Z" style="fill:none;stroke:black;stroke-width:1.25px;"/>
    </g>
</svg>

<svg xmlns="http://www.w3.org/2000/svg" width="16" height="16" viewBox="0 0 24 24" fill="none" stroke="#000000" stroke-width="1.25" stroke-linecap="round" stroke-linejoin="round" class="lucide lucide-clipboard-paste-icon lucide-clipboard-paste"><path d="M11 14h10"/><path d="M16 4h2a2 2 0 0 1 2 2v1.344"/><path d="m17 18 4-4-4-4"/><path d="M8 4H6a2 2 0 0 0-2 2v14a2 2 0 0 0 2 2h12a2 2 0 0 0 1.793-1.113"/><rect x="8" y="2" width="8" height="4" rx="1"/></svg>
